P3
50 50
255
0 0 51 5 0 51 10 0 51 15 0 51 20 0 51 26 0 51 31 0 51 36 0 51 41 0 51 46 0 51 51 0 51 56 0 51 61 0 51 66 0 51 71 0 51 77 0 51 82 0 51 87 0 51 92 0 51 97 0 51 102 0 51 107 0 51 112 0 51 117 0 51 122 0 51 128 0 51 133 0 51 138 0 51 143 0 51 148 0 51 153 0 51 158 0 51 163 0 51 168 0 51 173 0 51 179 0 51 184 0 51 189 0 51 194 0 51 199 0 51 204 0 51 209 0 51 214 0 51 219 0 51 224 0 51 230 0 51 235 0 51 240 0 51 245 0 51 250 0 51
0 5 51 5 5 51 10 5 51 15 5 51 20 5 51 26 5 51 31 5 51 36 5 51 41 5 51 46 5 51 51 5 51 56 5 51 61 5 51 66 5 51 71 5 51 77 5 51 82 5 51 87 5 51 92 5 51 97 5 51 102 5 51 107 5 51 112 5 51 117 5 51 122 5 51 128 5 51 133 5 51 138 5 51 143 5 51 148 5 51 153 5 51 158 5 51 163 5 51 168 5 51 173 5 51 179 5 51 184 5 51 189 5 51 194 5 51 199 5 51 204 5 51 209 5 51 214 5 51 219 5 51 224 5 51 230 5 51 235 5 51 240 5 51 245 5 51 250 5 51
0 10 51 5 10 51 10 10 51 15 10 51 20 10 51 26 10 51 31 10 51 36 10 51 41 10 51 46 10 51 51 10 51 56 10 51 61 10 51 66 10 51 71 10 51 77 10 51 82 10 51 87 10 51 92 10 51 97 10 51 102 10 51 107 10 51 112 10 51 117 10 51 122 10 51 128 10 51 133 10 51 138 10 51 143 10 51 148 10 51 153 10 51 158 10 51 163 10 51 168 10 51 173 10 51 179 10 51 184 10 51 189 10 51 194 10 51 199 10 51 204 10 51 209 10 51 214 10 51 219 10 51 224 10 51 230 10 51 235 10 51 240 10 51 245 10 51 250 10 51
0 15 51 5 15 51 10 15 51 15 15 51 20 15 51 26 15 51 31 15 51 36 15 51 41 15 51 46 15 51 51 15 51 56 15 51 61 15 51 66 15 51 71 15 51 77 15 51 82 15 51 87 15 51 92 15 51 97 15 51 102 15 51 107 15 51 112 15 51 117 15 51 122 15 51 128 15 51 133 15 51 138 15 51 143 15 51 148 15 51 153 15 51 158 15 51 163 15 51 168 15 51 173 15 51 179 15 51 184 15 51 189 15 51 194 15 51 199 15 51 204 15 51 209 15 51 214 15 51 219 15 51 224 15 51 230 15 51 235 15 51 240 15 51 245 15 51 250 15 51
0 20 51 5 20 51 10 20 51 15 20 51 20 20 51 26 20 51 31 20 51 36 20 51 41 20 51 46 20 51 51 20 51 56 20 51 61 20 51 66 20 51 71 20 51 77 20 51 82 20 51 87 20 51 92 20 51 97 20 51 102 20 51 107 20 51 112 20 51 117 20 51 122 20 51 128 20 51 133 20 51 138 20 51 143 20 51 148 20 51 153 20 51 158 20 51 163 20 51 168 20 51 173 20 51 179 20 51 184 20 51 189 20 51 194 20 51 199 20 51 204 20 51 209 20 51 214 20 51 219 20 51 224 20 51 230 20 51 235 20 51 240 20 51 245 20 51 250 20 51
0 26 51 5 26 51 10 26 51 15 26 51 20 26 51 26 26 51 31 26 51 36 26 51 41 26 51 46 26 51 51 26 51 56 26 51 61 26 51 66 26 51 71 26 51 77 26 51 82 26 51 87 26 51 92 26 51 97 26 51 102 26 51 107 26 51 112 26 51 117 26 51 122 26 51 128 26 51 133 26 51 138 26 51 143 26 51 148 26 51 153 26 51 158 26 51 163 26 51 168 26 51 173 26 51 179 26 51 184 26 51 189 26 51 194 26 51 199 26 51 204 26 51 209 26 51 214 26 51 219 26 51 224 26 51 230 26 51 235 26 51 240 26 51 245 26 51 250 26 51
0 31 51 5 31 51 10 31 51 15 31 51 20 31 51 26 31 51 31 31 51 36 31 51 41 31 51 46 31 51 51 31 51 56 31 51 61 31 51 66 31 51 71 31 51 77 31 51 82 31 51 87 31 51 92 31 51 97 31 51 102 31 51 107 31 51 112 31 51 117 31 51 122 31 51 128 31 51 133 31 51 138 31 51 143 31 51 148 31 51 153 31 51 158 31 51 163 31 51 168 31 51 173 31 51 179 31 51 184 31 51 189 31 51 194 31 51 199 31 51 204 31 51 209 31 51 214 31 51 219 31 51 224 31 51 230 31 51 235 31 51 240 31 51 245 31 51 250 31 51
0 36 51 5 36 51 10 36 51 15 36 51 20 36 51 26 36 51 31 36 51 36 36 51 41 36 51 46 36 51 51 36 51 56 36 51 61 36 51 66 36 51 71 36 51 77 36 51 82 36 51 87 36 51 92 36 51 97 36 51 102 36 51 107 36 51 112 36 51 117 36 51 122 36 51 128 36 51 133 36 51 138 36 51 143 36 51 148 36 51 153 36 51 158 36 51 163 36 51 168 36 51 173 36 51 179 36 51 184 36 51 189 36 51 194 36 51 199 36 51 204 36 51 209 36 51 214 36 51 219 36 51 224 36 51 230 36 51 235 36 51 240 36 51 245 36 51 250 36 51
0 41 51 5 41 51 10 41 51 15 41 51 20 41 51 26 41 51 31 41 51 36 41 51 41 41 51 46 41 51 51 41 51 56 41 51 61 41 51 66 41 51 71 41 51 77 41 51 82 41 51 87 41 51 92 41 51 97 41 51 102 41 51 107 41 51 112 41 51 117 41 51 122 41 51 128 41 51 133 41 51 138 41 51 143 41 51 148 41 51 153 41 51 158 41 51 163 41 51 168 41 51 173 41 51 179 41 51 184 41 51 189 41 51 194 41 51 199 41 51 204 41 51 209 41 51 214 41 51 219 41 51 224 41 51 230 41 51 235 41 51 240 41 51 245 41 51 250 41 51
0 46 51 5 46 51 10 46 51 15 46 51 20 46 51 26 46 51 31 46 51 36 46 51 41 46 51 46 46 51 51 46 51 56 46 51 61 46 51 66 46 51 71 46 51 77 46 51 82 46 51 87 46 51 92 46 51 97 46 51 102 46 51 107 46 51 112 46 51 117 46 51 122 46 51 128 46 51 133 46 51 138 46 51 143 46 51 148 46 51 153 46 51 158 46 51 163 46 51 168 46 51 173 46 51 179 46 51 184 46 51 189 46 51 194 46 51 199 46 51 204 46 51 209 46 51 214 46 51 219 46 51 224 46 51 230 46 51 235 46 51 240 46 51 245 46 51 250 46 51
0 51 51 5 51 51 10 51 51 15 51 51 20 51 51 26 51 51 31 51 51 36 51 51 41 51 51 46 51 51 51 51 51 56 51 51 61 51 51 66 51 51 71 51 51 77 51 51 82 51 51 87 51 51 92 51 51 97 51 51 102 51 51 107 51 51 112 51 51 117 51 51 122 51 51 128 51 51 133 51 51 138 51 51 143 51 51 148 51 51 153 51 51 158 51 51 163 51 51 168 51 51 173 51 51 179 51 51 184 51 51 189 51 51 194 51 51 199 51 51 204 51 51 209 51 51 214 51 51 219 51 51 224 51 51 230 51 51 235 51 51 240 51 51 245 51 51 250 51 51
0 56 51 5 56 51 10 56 51 15 56 51 20 56 51 26 56 51 31 56 51 36 56 51 41 56 51 46 56 51 51 56 51 56 56 51 61 56 51 66 56 51 71 56 51 77 56 51 82 56 51 87 56 51 92 56 51 97 56 51 102 56 51 107 56 51 112 56 51 117 56 51 122 56 51 128 56 51 133 56 51 138 56 51 143 56 51 148 56 51 153 56 51 158 56 51 163 56 51 168 56 51 173 56 51 179 56 51 184 56 51 189 56 51 194 56 51 199 56 51 204 56 51 209 56 51 214 56 51 219 56 51 224 56 51 230 56 51 235 56 51 240 56 51 245 56 51 250 56 51
0 61 51 5 61 51 10 61 51 15 61 51 20 61 51 26 61 51 31 61 51 36 61 51 41 61 51 46 61 51 51 61 51 56 61 51 61 61 51 66 61 51 71 61 51 77 61 51 82 61 51 87 61 51 92 61 51 97 61 51 102 61 51 107 61 51 112 61 51 117 61 51 122 61 51 128 61 51 133 61 51 138 61 51 143 61 51 148 61 51 153 61 51 158 61 51 163 61 51 168 61 51 173 61 51 179 61 51 184 61 51 189 61 51 194 61 51 199 61 51 204 61 51 209 61 51 214 61 51 219 61 51 224 61 51 230 61 51 235 61 51 240 61 51 245 61 51 250 61 51
0 66 51 5 66 51 10 66 51 15 66 51 20 66 51 26 66 51 31 66 51 36 66 51 41 66 51 46 66 51 51 66 51 56 66 51 61 66 51 66 66 51 71 66 51 77 66 51 82 66 51 87 66 51 92 66 51 97 66 51 102 66 51 107 66 51 112 66 51 117 66 51 122 66 51 128 66 51 133 66 51 138 66 51 143 66 51 148 66 51 153 66 51 158 66 51 163 66 51 168 66 51 173 66 51 179 66 51 184 66 51 189 66 51 194 66 51 199 66 51 204 66 51 209 66 51 214 66 51 219 66 51 224 66 51 230 66 51 235 66 51 240 66 51 245 66 51 250 66 51
0 71 51 5 71 51 10 71 51 15 71 51 20 71 51 26 71 51 31 71 51 36 71 51 41 71 51 46 71 51 51 71 51 56 71 51 61 71 51 66 71 51 71 71 51 77 71 51 82 71 51 87 71 51 92 71 51 97 71 51 102 71 51 107 71 51 112 71 51 117 71 51 122 71 51 128 71 51 133 71 51 138 71 51 143 71 51 148 71 51 153 71 51 158 71 51 163 71 51 168 71 51 173 71 51 179 71 51 184 71 51 189 71 51 194 71 51 199 71 51 204 71 51 209 71 51 214 71 51 219 71 51 224 71 51 230 71 51 235 71 51 240 71 51 245 71 51 250 71 51
0 77 51 5 77 51 10 77 51 15 77 51 20 77 51 26 77 51 31 77 51 36 77 51 41 77 51 46 77 51 51 77 51 56 77 51 61 77 51 66 77 51 71 77 51 77 77 51 82 77 51 87 77 51 92 77 51 97 77 51 102 77 51 107 77 51 112 77 51 117 77 51 122 77 51 128 77 51 133 77 51 138 77 51 143 77 51 148 77 51 153 77 51 158 77 51 163 77 51 168 77 51 173 77 51 179 77 51 184 77 51 189 77 51 194 77 51 199 77 51 204 77 51 209 77 51 214 77 51 219 77 51 224 77 51 230 77 51 235 77 51 240 77 51 245 77 51 250 77 51
0 82 51 5 82 51 10 82 51 15 82 51 20 82 51 26 82 51 31 82 51 36 82 51 41 82 51 46 82 51 51 82 51 56 82 51 61 82 51 66 82 51 71 82 51 77 82 51 82 82 51 87 82 51 92 82 51 97 82 51 102 82 51 107 82 51 112 82 51 117 82 51 122 82 51 128 82 51 133 82 51 138 82 51 143 82 51 148 82 51 153 82 51 158 82 51 163 82 51 168 82 51 173 82 51 179 82 51 184 82 51 189 82 51 194 82 51 199 82 51 204 82 51 209 82 51 214 82 51 219 82 51 224 82 51 230 82 51 235 82 51 240 82 51 245 82 51 250 82 51
0 87 51 5 87 51 10 87 51 15 87 51 20 87 51 26 87 51 31 87 51 36 87 51 41 87 51 46 87 51 51 87 51 56 87 51 61 87 51 66 87 51 71 87 51 77 87 51 82 87 51 87 87 51 92 87 51 97 87 51 102 87 51 107 87 51 112 87 51 117 87 51 122 87 51 128 87 51 133 87 51 138 87 51 143 87 51 148 87 51 153 87 51 158 87 51 163 87 51 168 87 51 173 87 51 179 87 51 184 87 51 189 87 51 194 87 51 199 87 51 204 87 51 209 87 51 214 87 51 219 87 51 224 87 51 230 87 51 235 87 51 240 87 51 245 87 51 250 87 51
0 92 51 5 92 51 10 92 51 15 92 51 20 92 51 26 92 51 31 92 51 36 92 51 41 92 51 46 92 51 51 92 51 56 92 51 61 92 51 66 92 51 71 92 51 77 92 51 82 92 51 87 92 51 92 92 51 97 92 51 102 92 51 107 92 51 112 92 51 117 92 51 122 92 51 128 92 51 133 92 51 138 92 51 143 92 51 148 92 51 153 92 51 158 92 51 163 92 51 168 92 51 173 92 51 179 92 51 184 92 51 189 92 51 194 92 51 199 92 51 204 92 51 209 92 51 214 92 51 219 92 51 224 92 51 230 92 51 235 92 51 240 92 51 245 92 51 250 92 51
0 97 51 5 97 51 10 97 51 15 97 51 20 97 51 26 97 51 31 97 51 36 97 51 41 97 51 46 97 51 51 97 51 56 97 51 61 97 51 66 97 51 71 97 51 77 97 51 82 97 51 87 97 51 92 97 51 97 97 51 102 97 51 107 97 51 112 97 51 117 97 51 122 97 51 128 97 51 133 97 51 138 97 51 143 97 51 148 97 51 153 97 51 158 97 51 163 97 51 168 97 51 173 97 51 179 97 51 184 97 51 189 97 51 194 97 51 199 97 51 204 97 51 209 97 51 214 97 51 219 97 51 224 97 51 230 97 51 235 97 51 240 97 51 245 97 51 250 97 51
0 102 51 5 102 51 10 102 51 15 102 51 20 102 51 26 102 51 31 102 51 36 102 51 41 102 51 46 102 51 51 102 51 56 102 51 61 102 51 66 102 51 71 102 51 77 102 51 82 102 51 87 102 51 92 102 51 97 102 51 102 102 51 107 102 51 112 102 51 117 102 51 122 102 51 128 102 51 133 102 51 138 102 51 143 102 51 148 102 51 153 102 51 158 102 51 163 102 51 168 102 51 173 102 51 179 102 51 184 102 51 189 102 51 194 102 51 199 102 51 204 102 51 209 102 51 214 102 51 219 102 51 224 102 51 230 102 51 235 102 51 240 102 51 245 102 51 250 102 51
0 107 51 5 107 51 10 107 51 15 107 51 20 107 51 26 107 51 31 107 51 36 107 51 41 107 51 46 107 51 51 107 51 56 107 51 61 107 51 66 107 51 71 107 51 77 107 51 82 107 51 87 107 51 92 107 51 97 107 51 102 107 51 107 107 51 112 107 51 117 107 51 122 107 51 128 107 51 133 107 51 138 107 51 143 107 51 148 107 51 153 107 51 158 107 51 163 107 51 168 107 51 173 107 51 179 107 51 184 107 51 189 107 51 194 107 51 199 107 51 204 107 51 209 107 51 214 107 51 219 107 51 224 107 51 230 107 51 235 107 51 240 107 51 245 107 51 250 107 51
0 112 51 5 112 51 10 112 51 15 112 51 20 112 51 26 112 51 31 112 51 36 112 51 41 112 51 46 112 51 51 112 51 56 112 51 61 112 51 66 112 51 71 112 51 77 112 51 82 112 51 87 112 51 92 112 51 97 112 51 102 112 51 107 112 51 112 112 51 117 112 51 122 112 51 128 112 51 133 112 51 138 112 51 143 112 51 148 112 51 153 112 51 158 112 51 163 112 51 168 112 51 173 112 51 179 112 51 184 112 51 189 112 51 194 112 51 199 112 51 204 112 51 209 112 51 214 112 51 219 112 51 224 112 51 230 112 51 235 112 51 240 112 51 245 112 51 250 112 51
0 117 51 5 117 51 10 117 51 15 117 51 20 117 51 26 117 51 31 117 51 36 117 51 41 117 51 46 117 51 51 117 51 56 117 51 61 117 51 66 117 51 71 117 51 77 117 51 82 117 51 87 117 51 92 117 51 97 117 51 102 117 51 107 117 51 112 117 51 117 117 51 122 117 51 128 117 51 133 117 51 138 117 51 143 117 51 148 117 51 153 117 51 158 117 51 163 117 51 168 117 51 173 117 51 179 117 51 184 117 51 189 117 51 194 117 51 199 117 51 204 117 51 209 117 51 214 117 51 219 117 51 224 117 51 230 117 51 235 117 51 240 117 51 245 117 51 250 117 51
0 122 51 5 122 51 10 122 51 15 122 51 20 122 51 26 122 51 31 122 51 36 122 51 41 122 51 46 122 51 51 122 51 56 122 51 61 122 51 66 122 51 71 122 51 77 122 51 82 122 51 87 122 51 92 122 51 97 122 51 102 122 51 107 122 51 112 122 51 117 122 51 122 122 51 128 122 51 133 122 51 138 122 51 143 122 51 148 122 51 153 122 51 158 122 51 163 122 51 168 122 51 173 122 51 179 122 51 184 122 51 189 122 51 194 122 51 199 122 51 204 122 51 209 122 51 214 122 51 219 122 51 224 122 51 230 122 51 235 122 51 240 122 51 245 122 51 250 122 51
0 128 51 5 128 51 10 128 51 15 128 51 20 128 51 26 128 51 31 128 51 36 128 51 41 128 51 46 128 51 51 128 51 56 128 51 61 128 51 66 128 51 71 128 51 77 128 51 82 128 51 87 128 51 92 128 51 97 128 51 102 128 51 107 128 51 112 128 51 117 128 51 122 128 51 128 128 51 133 128 51 138 128 51 143 128 51 148 128 51 153 128 51 158 128 51 163 128 51 168 128 51 173 128 51 179 128 51 184 128 51 189 128 51 194 128 51 199 128 51 204 128 51 209 128 51 214 128 51 219 128 51 224 128 51 230 128 51 235 128 51 240 128 51 245 128 51 250 128 51
0 133 51 5 133 51 10 133 51 15 133 51 20 133 51 26 133 51 31 133 51 36 133 51 41 133 51 46 133 51 51 133 51 56 133 51 61 133 51 66 133 51 71 133 51 77 133 51 82 133 51 87 133 51 92 133 51 97 133 51 102 133 51 107 133 51 112 133 51 117 133 51 122 133 51 128 133 51 133 133 51 138 133 51 143 133 51 148 133 51 153 133 51 158 133 51 163 133 51 168 133 51 173 133 51 179 133 51 184 133 51 189 133 51 194 133 51 199 133 51 204 133 51 209 133 51 214 133 51 219 133 51 224 133 51 230 133 51 235 133 51 240 133 51 245 133 51 250 133 51
0 138 51 5 138 51 10 138 51 15 138 51 20 138 51 26 138 51 31 138 51 36 138 51 41 138 51 46 138 51 51 138 51 56 138 51 61 138 51 66 138 51 71 138 51 77 138 51 82 138 51 87 138 51 92 138 51 97 138 51 102 138 51 107 138 51 112 138 51 117 138 51 122 138 51 128 138 51 133 138 51 138 138 51 143 138 51 148 138 51 153 138 51 158 138 51 163 138 51 168 138 51 173 138 51 179 138 51 184 138 51 189 138 51 194 138 51 199 138 51 204 138 51 209 138 51 214 138 51 219 138 51 224 138 51 230 138 51 235 138 51 240 138 51 245 138 51 250 138 51
0 143 51 5 143 51 10 143 51 15 143 51 20 143 51 26 143 51 31 143 51 36 143 51 41 143 51 46 143 51 51 143 51 56 143 51 61 143 51 66 143 51 71 143 51 77 143 51 82 143 51 87 143 51 92 143 51 97 143 51 102 143 51 107 143 51 112 143 51 117 143 51 122 143 51 128 143 51 133 143 51 138 143 51 143 143 51 148 143 51 153 143 51 158 143 51 163 143 51 168 143 51 173 143 51 179 143 51 184 143 51 189 143 51 194 143 51 199 143 51 204 143 51 209 143 51 214 143 51 219 143 51 224 143 51 230 143 51 235 143 51 240 143 51 245 143 51 250 143 51
0 148 51 5 148 51 10 148 51 15 148 51 20 148 51 26 148 51 31 148 51 36 148 51 41 148 51 46 148 51 51 148 51 56 148 51 61 148 51 66 148 51 71 148 51 77 148 51 82 148 51 87 148 51 92 148 51 97 148 51 102 148 51 107 148 51 112 148 51 117 148 51 122 148 51 128 148 51 133 148 51 138 148 51 143 148 51 148 148 51 153 148 51 158 148 51 163 148 51 168 148 51 173 148 51 179 148 51 184 148 51 189 148 51 194 148 51 199 148 51 204 148 51 209 148 51 214 148 51 219 148 51 224 148 51 230 148 51 235 148 51 240 148 51 245 148 51 250 148 51
0 153 51 5 153 51 10 153 51 15 153 51 20 153 51 26 153 51 31 153 51 36 153 51 41 153 51 46 153 51 51 153 51 56 153 51 61 153 51 66 153 51 71 153 51 77 153 51 82 153 51 87 153 51 92 153 51 97 153 51 102 153 51 107 153 51 112 153 51 117 153 51 122 153 51 128 153 51 133 153 51 138 153 51 143 153 51 148 153 51 153 153 51 158 153 51 163 153 51 168 153 51 173 153 51 179 153 51 184 153 51 189 153 51 194 153 51 199 153 51 204 153 51 209 153 51 214 153 51 219 153 51 224 153 51 230 153 51 235 153 51 240 153 51 245 153 51 250 153 51
0 158 51 5 158 51 10 158 51 15 158 51 20 158 51 26 158 51 31 158 51 36 158 51 41 158 51 46 158 51 51 158 51 56 158 51 61 158 51 66 158 51 71 158 51 77 158 51 82 158 51 87 158 51 92 158 51 97 158 51 102 158 51 107 158 51 112 158 51 117 158 51 122 158 51 128 158 51 133 158 51 138 158 51 143 158 51 148 158 51 153 158 51 158 158 51 163 158 51 168 158 51 173 158 51 179 158 51 184 158 51 189 158 51 194 158 51 199 158 51 204 158 51 209 158 51 214 158 51 219 158 51 224 158 51 230 158 51 235 158 51 240 158 51 245 158 51 250 158 51
0 163 51 5 163 51 10 163 51 15 163 51 20 163 51 26 163 51 31 163 51 36 163 51 41 163 51 46 163 51 51 163 51 56 163 51 61 163 51 66 163 51 71 163 51 77 163 51 82 163 51 87 163 51 92 163 51 97 163 51 102 163 51 107 163 51 112 163 51 117 163 51 122 163 51 128 163 51 133 163 51 138 163 51 143 163 51 148 163 51 153 163 51 158 163 51 163 163 51 168 163 51 173 163 51 179 163 51 184 163 51 189 163 51 194 163 51 199 163 51 204 163 51 209 163 51 214 163 51 219 163 51 224 163 51 230 163 51 235 163 51 240 163 51 245 163 51 250 163 51
0 168 51 5 168 51 10 168 51 15 168 51 20 168 51 26 168 51 31 168 51 36 168 51 41 168 51 46 168 51 51 168 51 56 168 51 61 168 51 66 168 51 71 168 51 77 168 51 82 168 51 87 168 51 92 168 51 97 168 51 102 168 51 107 168 51 112 168 51 117 168 51 122 168 51 128 168 51 133 168 51 138 168 51 143 168 51 148 168 51 153 168 51 158 168 51 163 168 51 168 168 51 173 168 51 179 168 51 184 168 51 189 168 51 194 168 51 199 168 51 204 168 51 209 168 51 214 168 51 219 168 51 224 168 51 230 168 51 235 168 51 240 168 51 245 168 51 250 168 51
0 173 51 5 173 51 10 173 51 15 173 51 20 173 51 26 173 51 31 173 51 36 173 51 41 173 51 46 173 51 51 173 51 56 173 51 61 173 51 66 173 51 71 173 51 77 173 51 82 173 51 87 173 51 92 173 51 97 173 51 102 173 51 107 173 51 112 173 51 117 173 51 122 173 51 128 173 51 133 173 51 138 173 51 143 173 51 148 173 51 153 173 51 158 173 51 163 173 51 168 173 51 173 173 51 179 173 51 184 173 51 189 173 51 194 173 51 199 173 51 204 173 51 209 173 51 214 173 51 219 173 51 224 173 51 230 173 51 235 173 51 240 173 51 245 173 51 250 173 51
0 179 51 5 179 51 10 179 51 15 179 51 20 179 51 26 179 51 31 179 51 36 179 51 41 179 51 46 179 51 51 179 51 56 179 51 61 179 51 66 179 51 71 179 51 77 179 51 82 179 51 87 179 51 92 179 51 97 179 51 102 179 51 107 179 51 112 179 51 117 179 51 122 179 51 128 179 51 133 179 51 138 179 51 143 179 51 148 179 51 153 179 51 158 179 51 163 179 51 168 179 51 173 179 51 179 179 51 184 179 51 189 179 51 194 179 51 199 179 51 204 179 51 209 179 51 214 179 51 219 179 51 224 179 51 230 179 51 235 179 51 240 179 51 245 179 51 250 179 51
0 184 51 5 184 51 10 184 51 15 184 51 20 184 51 26 184 51 31 184 51 36 184 51 41 184 51 46 184 51 51 184 51 56 184 51 61 184 51 66 184 51 71 184 51 77 184 51 82 184 51 87 184 51 92 184 51 97 184 51 102 184 51 107 184 51 112 184 51 117 184 51 122 184 51 128 184 51 133 184 51 138 184 51 143 184 51 148 184 51 153 184 51 158 184 51 163 184 51 168 184 51 173 184 51 179 184 51 184 184 51 189 184 51 194 184 51 199 184 51 204 184 51 209 184 51 214 184 51 219 184 51 224 184 51 230 184 51 235 184 51 240 184 51 245 184 51 250 184 51
0 189 51 5 189 51 10 189 51 15 189 51 20 189 51 26 189 51 31 189 51 36 189 51 41 189 51 46 189 51 51 189 51 56 189 51 61 189 51 66 189 51 71 189 51 77 189 51 82 189 51 87 189 51 92 189 51 97 189 51 102 189 51 107 189 51 112 189 51 117 189 51 122 189 51 128 189 51 133 189 51 138 189 51 143 189 51 148 189 51 153 189 51 158 189 51 163 189 51 168 189 51 173 189 51 179 189 51 184 189 51 189 189 51 194 189 51 199 189 51 204 189 51 209 189 51 214 189 51 219 189 51 224 189 51 230 189 51 235 189 51 240 189 51 245 189 51 250 189 51
0 194 51 5 194 51 10 194 51 15 194 51 20 194 51 26 194 51 31 194 51 36 194 51 41 194 51 46 194 51 51 194 51 56 194 51 61 194 51 66 194 51 71 194 51 77 194 51 82 194 51 87 194 51 92 194 51 97 194 51 102 194 51 107 194 51 112 194 51 117 194 51 122 194 51 128 194 51 133 194 51 138 194 51 143 194 51 148 194 51 153 194 51 158 194 51 163 194 51 168 194 51 173 194 51 179 194 51 184 194 51 189 194 51 194 194 51 199 194 51 204 194 51 209 194 51 214 194 51 219 194 51 224 194 51 230 194 51 235 194 51 240 194 51 245 194 51 250 194 51
0 199 51 5 199 51 10 199 51 15 199 51 20 199 51 26 199 51 31 199 51 36 199 51 41 199 51 46 199 51 51 199 51 56 199 51 61 199 51 66 199 51 71 199 51 77 199 51 82 199 51 87 199 51 92 199 51 97 199 51 102 199 51 107 199 51 112 199 51 117 199 51 122 199 51 128 199 51 133 199 51 138 199 51 143 199 51 148 199 51 153 199 51 158 199 51 163 199 51 168 199 51 173 199 51 179 199 51 184 199 51 189 199 51 194 199 51 199 199 51 204 199 51 209 199 51 214 199 51 219 199 51 224 199 51 230 199 51 235 199 51 240 199 51 245 199 51 250 199 51
0 204 51 5 204 51 10 204 51 15 204 51 20 204 51 26 204 51 31 204 51 36 204 51 41 204 51 46 204 51 51 204 51 56 204 51 61 204 51 66 204 51 71 204 51 77 204 51 82 204 51 87 204 51 92 204 51 97 204 51 102 204 51 107 204 51 112 204 51 117 204 51 122 204 51 128 204 51 133 204 51 138 204 51 143 204 51 148 204 51 153 204 51 158 204 51 163 204 51 168 204 51 173 204 51 179 204 51 184 204 51 189 204 51 194 204 51 199 204 51 204 204 51 209 204 51 214 204 51 219 204 51 224 204 51 230 204 51 235 204 51 240 204 51 245 204 51 250 204 51
0 209 51 5 209 51 10 209 51 15 209 51 20 209 51 26 209 51 31 209 51 36 209 51 41 209 51 46 209 51 51 209 51 56 209 51 61 209 51 66 209 51 71 209 51 77 209 51 82 209 51 87 209 51 92 209 51 97 209 51 102 209 51 107 209 51 112 209 51 117 209 51 122 209 51 128 209 51 133 209 51 138 209 51 143 209 51 148 209 51 153 209 51 158 209 51 163 209 51 168 209 51 173 209 51 179 209 51 184 209 51 189 209 51 194 209 51 199 209 51 204 209 51 209 209 51 214 209 51 219 209 51 224 209 51 230 209 51 235 209 51 240 209 51 245 209 51 250 209 51
0 214 51 5 214 51 10 214 51 15 214 51 20 214 51 26 214 51 31 214 51 36 214 51 41 214 51 46 214 51 51 214 51 56 214 51 61 214 51 66 214 51 71 214 51 77 214 51 82 214 51 87 214 51 92 214 51 97 214 51 102 214 51 107 214 51 112 214 51 117 214 51 122 214 51 128 214 51 133 214 51 138 214 51 143 214 51 148 214 51 153 214 51 158 214 51 163 214 51 168 214 51 173 214 51 179 214 51 184 214 51 189 214 51 194 214 51 199 214 51 204 214 51 209 214 51 214 214 51 219 214 51 224 214 51 230 214 51 235 214 51 240 214 51 245 214 51 250 214 51
0 219 51 5 219 51 10 219 51 15 219 51 20 219 51 26 219 51 31 219 51 36 219 51 41 219 51 46 219 51 51 219 51 56 219 51 61 219 51 66 219 51 71 219 51 77 219 51 82 219 51 87 219 51 92 219 51 97 219 51 102 219 51 107 219 51 112 219 51 117 219 51 122 219 51 128 219 51 133 219 51 138 219 51 143 219 51 148 219 51 153 219 51 158 219 51 163 219 51 168 219 51 173 219 51 179 219 51 184 219 51 189 219 51 194 219 51 199 219 51 204 219 51 209 219 51 214 219 51 219 219 51 224 219 51 230 219 51 235 219 51 240 219 51 245 219 51 250 219 51
0 224 51 5 224 51 10 224 51 15 224 51 20 224 51 26 224 51 31 224 51 36 224 51 41 224 51 46 224 51 51 224 51 56 224 51 61 224 51 66 224 51 71 224 51 77 224 51 82 224 51 87 224 51 92 224 51 97 224 51 102 224 51 107 224 51 112 224 51 117 224 51 122 224 51 128 224 51 133 224 51 138 224 51 143 224 51 148 224 51 153 224 51 158 224 51 163 224 51 168 224 51 173 224 51 179 224 51 184 224 51 189 224 51 194 224 51 199 224 51 204 224 51 209 224 51 214 224 51 219 224 51 224 224 51 230 224 51 235 224 51 240 224 51 245 224 51 250 224 51
0 230 51 5 230 51 10 230 51 15 230 51 20 230 51 26 230 51 31 230 51 36 230 51 41 230 51 46 230 51 51 230 51 56 230 51 61 230 51 66 230 51 71 230 51 77 230 51 82 230 51 87 230 51 92 230 51 97 230 51 102 230 51 107 230 51 112 230 51 117 230 51 122 230 51 128 230 51 133 230 51 138 230 51 143 230 51 148 230 51 153 230 51 158 230 51 163 230 51 168 230 51 173 230 51 179 230 51 184 230 51 189 230 51 194 230 51 199 230 51 204 230 51 209 230 51 214 230 51 219 230 51 224 230 51 230 230 51 235 230 51 240 230 51 245 230 51 250 230 51
0 235 51 5 235 51 10 235 51 15 235 51 20 235 51 26 235 51 31 235 51 36 235 51 41 235 51 46 235 51 51 235 51 56 235 51 61 235 51 66 235 51 71 235 51 77 235 51 82 235 51 87 235 51 92 235 51 97 235 51 102 235 51 107 235 51 112 235 51 117 235 51 122 235 51 128 235 51 133 235 51 138 235 51 143 235 51 148 235 51 153 235 51 158 235 51 163 235 51 168 235 51 173 235 51 179 235 51 184 235 51 189 235 51 194 235 51 199 235 51 204 235 51 209 235 51 214 235 51 219 235 51 224 235 51 230 235 51 235 235 51 240 235 51 245 235 51 250 235 51
0 240 51 5 240 51 10 240 51 15 240 51 20 240 51 26 240 51 31 240 51 36 240 51 41 240 51 46 240 51 51 240 51 56 240 51 61 240 51 66 240 51 71 240 51 77 240 51 82 240 51 87 240 51 92 240 51 97 240 51 102 240 51 107 240 51 112 240 51 117 240 51 122 240 51 128 240 51 133 240 51 138 240 51 143 240 51 148 240 51 153 240 51 158 240 51 163 240 51 168 240 51 173 240 51 179 240 51 184 240 51 189 240 51 194 240 51 199 240 51 204 240 51 209 240 51 214 240 51 219 240 51 224 240 51 230 240 51 235 240 51 240 240 51 245 240 51 250 240 51
0 245 51 5 245 51 10 245 51 15 245 51 20 245 51 26 245 51 31 245 51 36 245 51 41 245 51 46 245 51 51 245 51 56 245 51 61 245 51 66 245 51 71 245 51 77 245 51 82 245 51 87 245 51 92 245 51 97 245 51 102 245 51 107 245 51 112 245 51 117 245 51 122 245 51 128 245 51 133 245 51 138 245 51 143 245 51 148 245 51 153 245 51 158 245 51 163 245 51 168 245 51 173 245 51 179 245 51 184 245 51 189 245 51 194 245 51 199 245 51 204 245 51 209 245 51 214 245 51 219 245 51 224 245 51 230 245 51 235 245 51 240 245 51 245 245 51 250 245 51
0 250 51 5 250 51 10 250 51 15 250 51 20 250 51 26 250 51 31 250 51 36 250 51 41 250 51 46 250 51 51 250 51 56 250 51 61 250 51 66 250 51 71 250 51 77 250 51 82 250 51 87 250 51 92 250 51 97 250 51 102 250 51 107 250 51 112 250 51 117 250 51 122 250 51 128 250 51 133 250 51 138 250 51 143 250 51 148 250 51 153 250 51 158 250 51 163 250 51 168 250 51 173 250 51 179 250 51 184 250 51 189 250 51 194 250 51 199 250 51 204 250 51 209 250 51 214 250 51 219 250 51 224 250 51 230 250 51 235 250 51 240 250 51 245 250 51 250 250 51
